!!!id: EG098
!!!page: 80-84
!!!COM: Anonymous
!!!LYR: Anonymous
!!!PTL@@FR: Chansons Populaires du Canada
!!!OTL@@FR: Une perdriole
!!!PUB: G. E. Desbarats
!!!YEM:
!!!PDT: 1865
!!!SMA:
!!!OMD:
!!!AGN-Laforte:
!!!AGN-type:
!!!AGN-rime:
**kern
*clefG2
*k[f#]
*e:
*M3/8
*
*
!LO:TX:a:B:t=A
8e
=1
4e
8f#
=2
4g
8a
=3
4b/
8a
=4
4b
8ee
=5
4dd
8dd
!!LO:PB:g=original
=6
4b
8b
=7
4e
8f#
=8
4g
8a
=9
4b/
8a
=10
4b
8ee
=11
4dd
8dd
!!LO:PB:g=original
=12
4b/
8r
!LO:TX:a:t=(segno)
==13
4e
8e
=14
4e
8f#
=15
4.g
=16
4g
8b/
=17
4b/
8a
!!LO:PB:g=original
=18
4g
8f#
=19
4.e
=20
4d
8r
=21
4e
8e
=22
4e
8f#
=23
4.g
=24
4g
8b/
!!LO:PB:g=original
=25
4b/
8a
=26
4g
8f#
=27
[4.e
=28
4e]
==||
!LO:TX:a:B:t=FIN.
8r
==||
*
*
==|
!!!RWG: Confusing score directions, code may need a revisit
*-
